assets/img/login-google.svg

<svg width="32" height="32" viewBox="0 0 32 32" fill="none" xmlns="http://www.w3.org/2000/svg">
<path d="M30.08 16.3335C30.08 15.2935 29.9867 14.2935 29.8133 13.3335H16V19.0068H23.8933C23.5533 20.8402 22.52 22.3935 20.9667 23.4335V27.1135H25.7067C28.48 24.5602 30.08 20.8002 30.08 16.3335Z" fill="#4285F4"/>
<path d="M16 30.6666C19.96 30.6666 23.28 29.3533 25.7066 27.1133L20.9666 23.4333C19.6533 24.3133 17.9733 24.8333 16 24.8333C12.18 24.8333 8.94664 22.2533 7.79331 18.7866H2.89331V22.5866C5.30664 27.38 10.2666 30.6666 16 30.6666Z" fill="#34A853"/>
<path d="M7.79338 18.7869C7.50004 17.9069 7.33338 16.9669 7.33338 16.0002C7.33338 15.0336 7.50004 14.0936 7.79338 13.2136V9.41357H2.89338C1.86671 11.4574 1.33247 13.7131 1.33338 16.0002C1.33338 18.3669 1.90004 20.6069 2.89338 22.5869L7.79338 18.7869Z" fill="#FBBC05"/>
<path d="M16 7.16683C18.1533 7.16683 20.0866 7.90683 21.6066 9.36016L25.8133 5.1535C23.2733 2.78683 19.9533 1.3335 16 1.3335C10.2666 1.3335 5.30664 4.62016 2.89331 9.4135L7.79331 13.2135C8.94664 9.74683 12.18 7.16683 16 7.16683Z" fill="#EA4335"/>
</svg>

<svg width="32" height="32" viewBox="0 0 32 32" fill="none" xmlns="http://www.w3.org/2000/svg"><path d="M30.08 16.334c0-1.04-.093-2.04-.267-3H16v5.673h7.893c-.34 1.833-1.373 3.386-2.926 4.426v3.68h4.74c2.773-2.553 4.373-6.313 4.373-10.78z" fill="#4285F4"/><path d="M16 30.667c3.96 0 7.28-1.314 9.707-3.554l-4.74-3.68c-1.314.88-2.994 1.4-4.967 1.4-3.82 0-7.053-2.58-8.207-6.046h-4.9v3.8c2.414 4.793 7.374 8.08 13.107 8.08z" fill="#34A853"/><path d="M7.793 18.787A8.816 8.816 0 017.333 16c0-.966.167-1.906.46-2.786v-3.8h-4.9A14.66 14.66 0 001.333 16c0 2.367.567 4.607 1.56 6.587l4.9-3.8z" fill="#FBBC05"/><path d="M16 7.167c2.153 0 4.087.74 5.607 2.193l4.206-4.206c-2.54-2.367-5.86-3.82-9.813-3.82-5.733 0-10.693 3.286-13.107 8.08l4.9 3.8C8.947 9.746 12.18 7.167 16 7.167z" fill="#EA4335"/></svg>
